X: 6908
T: Cheer Up Old Hag
R: jig
M: 6/8
K: Gmajor
|:A|BGG G2 B|ded d2 c|BAB GBd|e2 f g2 G|
GBd gfe|fdB cBA|BGE EDE|c3 B2:|
|:A|BGE EDE|GED D2 A|BGE EDE|c2 d edc|
BGE EDE|GED D2 F|GBA GBA|G3 G2:|

